X: 155
T:Invercauld
G:reel
S:Logan's Collection
M:2/4
L:1/16
Q:1/4=108
K:D
% lydian/major hexatonic
e2|A2d2   f2e>d|f2a2   f2e>d|A2d2  f2e>d|B2e2 e2d>B|
   A2d2   f2e>d|f2a2   f2e>d|B2e2  c2B<A|d4   d2  :|
% major
fg|a2d2   f2e>d|e>dc>B A2f<g|a2d2  f2e>d|B2e2 e2f>g|
[1 a2d2   f2e>d|e>dc>B A2c2 |B2e2  c2B<A|d4   d2  :|
[2 B<GB>c d2c>B|A2d2   f2e>d|B2e2  c2B<A|d4   d2  |]

And a hymn tune adopted by the Church of Ireland from an Irish folk tune:

